extension-fixtures/look-pack/luts/clean-warm.cube
TITLE "Clean Warm Fixture"
LUT_3D_SIZE 2
DOMAIN_MIN 0 0 0
DOMAIN_MAX 1 1 1
0.000000 0.000000 0.000000
1.000000 0.020000 0.000000
0.000000 0.980000 0.000000
1.000000 1.000000 0.000000
0.000000 0.000000 0.980000
1.000000 0.020000 0.980000
0.000000 0.980000 0.980000
1.000000 1.000000 0.980000
